X: 1265
T: Kom til meg om kvelden
S: Bruce Sagan's "scanfolk" session archive
F: https://nordicfiddlesandfeet.org/Allspel/Kom.pdf 2021-7-13
R: shottish
P: Schottis
%S: s:3 b:16(4+6+6)
Z: 2021 John Chambers <jc:trillian.mit.edu>
M: 2/4
L: 1/16
K: Dm
|: DEFG A2A2 | A=BGB A2F2 | FEGE F2DF | ED^CE D2A,2 :|[K:D]
|: d2d2 d2ed | c2A2 A4 | GFEF [1,2 GABd | c2A2 A2fe :|[1,3 GECE | D2D2 D4 :|[K:Dm]
|: d2d2 c3B | AGAB AFDE | F2F2 [1,3 GABG | A2A@ =B2^c2 :|[2,4 ED^cE | D2D2 D4 :|
